icon-themes/breeze_svg/cmd/32/graphicfiltersmooth.svg

<svg xmlns="http://www.w3.org/2000/svg" viewBox="0 0 32 32">
 <path 
     style="fill:#4d4d4d" 
     d="M 16 4 C 14.54 9.108 10.968531 13.497672 9.3945312 17.013672 C 8.8425313 18.059672 8.5 19.232 8.5 20.5 C 8.5 24.655 11.845 28 16 28 C 20.155 28 23.5 24.655 23.5 20.5 C 23.5 19.232 23.157469 18.059672 22.605469 17.013672 C 21.031469 13.497672 17.46 9.108 16 4 z M 19.425781 15.574219 C 20.980781 16.656219 22 18.453 22 20.5 C 22 23.824 19.324 26.5 16 26.5 C 13.953 26.5 12.156219 25.482781 11.074219 23.925781 C 12.044219 24.600781 13.223 25 14.5 25 C 17.824 25 20.5 22.324 20.5 19 C 20.5 17.723 20.100781 16.545219 19.425781 15.574219 z "
     />
 <path 
     style="fill:#f47750" 
     d="M 27 4 C 26.448 4 26 4.448 26 5 C 26 5.552 26.448 6 27 6 C 27.552 6 28 5.552 28 5 C 28 4.448 27.552 4 27 4 z M 27 8 C 26.448 8 26 8.448 26 9 C 26 9.552 26.448 10 27 10 C 27.552 10 28 9.552 28 9 C 28 8.448 27.552 8 27 8 z M 27 12 C 26.448 12 26 12.448 26 13 C 26 13.552 26.448 14 27 14 C 27.552 14 28 13.552 28 13 C 28 12.448 27.552 12 27 12 z "
     />
</svg>

<svg xmlns="http://www.w3.org/2000/svg" width="32" height="32" viewBox="0 0 32 32"><path d="M16 4c-1.46 5.108-5.032 9.498-6.606 13.014C8.842 18.06 8.5 19.232 8.5 20.5c0 4.155 3.345 7.5 7.5 7.5 4.155 0 7.5-3.345 7.5-7.5 0-1.268-.342-2.44-.894-3.486C21.032 13.498 17.46 9.108 16 4zm3.425 11.575C20.98 16.657 22 18.453 22 20.5c0 3.324-2.676 6-6 6-2.047 0-3.843-1.018-4.925-2.575C12.045 24.6 13.223 25 14.5 25c3.324 0 6-2.676 6-6 0-1.277-.4-2.454-1.075-3.425z" fill="#4d4d4d"/><path d="M27 4c-.552 0-1 .448-1 1s.448 1 1 1 1-.448 1-1-.448-1-1-1zm0 4c-.552 0-1 .448-1 1s.448 1 1 1 1-.448 1-1-.448-1-1-1zm0 4c-.552 0-1 .448-1 1s.448 1 1 1 1-.448 1-1-.448-1-1-1z" color="#000" overflow="visible" fill="#f47750"/></svg>
